www/assets/icons/no_stroller.svg

<svg width="24" height="24" viewBox="0 0 24 24" xmlns="http://www.w3.org/2000/svg" fill='currentColor'><path d="M6.30495 17.2901C7.40495 17.2901 8.30495 18.1901 8.30495 19.2901C8.30495 20.3901 7.40495 21.2901 6.30495 21.2901C5.20495 21.2901 4.30495 20.3901 4.30495 19.2901C4.30495 18.1901 5.20495 17.2901 6.30495 17.2901ZM18.9549 2.2901C17.2949 2.2901 16.4149 3.5601 15.7749 4.3201L12.2749 8.4301L17.3049 13.4601V5.5601C17.8849 4.8801 18.2749 4.2901 18.9549 4.2901C19.7249 4.2901 20.3049 4.9501 20.3049 5.7701V6.2901H22.3049V5.7701C22.3049 3.8501 20.8249 2.2901 18.9549 2.2901ZM3.11495 2.1001L1.69495 3.5101L9.66495 11.4801L7.00495 14.6001C6.45495 15.2501 6.91495 16.2501 7.76495 16.2501H14.4249L15.5949 17.4201C14.8449 17.7101 14.3049 18.4301 14.3049 19.2901C14.3049 20.3901 15.2049 21.2901 16.3049 21.2901C17.1649 21.2901 17.8849 20.7501 18.1749 19.9901L20.0849 21.9001L21.4949 20.4901L3.11495 2.1001ZM13.7749 4.3201C14.0449 4.0001 14.3549 3.6001 14.7549 3.2301C12.2949 2.0401 9.43495 2.0101 6.94495 3.1001L11.1949 7.3501L13.7749 4.3201Z"/></svg>

<svg xmlns="http://www.w3.org/2000/svg" width="24" height="24" viewBox="0 0 24 24" fill='currentColor'><path d="M6.305 17.29c1.1 0 2 .9 2 2s-.9 2-2 2-2-.9-2-2 .9-2 2-2m12.65-15c-1.66 0-2.54 1.27-3.18 2.03l-3.5 4.11 5.03 5.03v-7.9c.58-.68.97-1.27 1.65-1.27.77 0 1.35.66 1.35 1.48v.52h2v-.52c0-1.92-1.48-3.48-3.35-3.48M3.115 2.1l-1.42 1.41 7.97 7.97-2.66 3.12c-.55.65-.09 1.65.76 1.65h6.66l1.17 1.17c-.75.29-1.29 1.01-1.29 1.87 0 1.1.9 2 2 2 .86 0 1.58-.54 1.87-1.3l1.91 1.91 1.41-1.41zm10.66 2.22c.27-.32.58-.72.98-1.09a9.35 9.35 0 0 0-7.81-.13l4.25 4.25z"/></svg>
